packages/ui-solid/icons/person_remove_24.svg

<svg width="24" height="24" viewBox="0 0 24 24" fill="none" xmlns="http://www.w3.org/2000/svg">
<path fill-rule="evenodd" clip-rule="evenodd" d="M9.40001 3.89998C7.92145 3.89998 6.70001 5.12033 6.70001 6.65411C6.70001 8.18789 7.92145 9.40825 9.40001 9.40825C10.8786 9.40825 12.1 8.18789 12.1 6.65411C12.1 5.12033 10.8786 3.89998 9.40001 3.89998ZM4.90001 6.65411C4.90001 4.15164 6.90211 2.09998 9.40001 2.09998C11.8979 2.09998 13.9 4.15164 13.9 6.65411C13.9 9.15658 11.8979 11.2082 9.40001 11.2082C6.90211 11.2082 4.90001 9.15658 4.90001 6.65411ZM14.2663 15.4474C14.0328 15.8908 13.9 16.3984 13.9 16.9398C13.9 18.6978 15.3005 20.1 17 20.1C17.5337 20.1 18.0362 19.9629 18.4755 19.7199L14.2663 15.4474ZM13.5311 13.4366C12.6456 14.3358 12.1 15.5761 12.1 16.9398C12.1 19.6665 14.2812 21.9 17 21.9C18.3573 21.9 19.5849 21.3403 20.4696 20.4424C21.3539 19.5447 21.9 18.3049 21.9 16.9398C21.9 14.2131 19.7188 11.9797 17 11.9797C15.6409 11.9797 14.4162 12.5378 13.5311 13.4366ZM15.5249 14.1602L19.7335 18.4321C19.9673 17.9882 20.1 17.4806 20.1 16.9398C20.1 15.1818 18.6995 13.7797 17 13.7797C16.4677 13.7797 15.9647 13.9172 15.5249 14.1602ZM3.53465 13.847C4.38232 13.0527 5.41759 12.7917 6.20001 12.7917H10.5777C11.0747 12.7917 11.4777 13.1946 11.4777 13.6917C11.4777 14.1888 11.0747 14.5917 10.5777 14.5917H6.20001C5.78242 14.5917 5.2177 14.7367 4.76536 15.1605C4.3331 15.5655 3.90001 16.3224 3.90001 17.7519C3.90001 18.2489 3.49706 18.6519 3.00001 18.6519C2.50295 18.6519 2.10001 18.2489 2.10001 17.7519C2.10001 15.9332 2.66692 14.66 3.53465 13.847Z" fill="#007AFF"/>
</svg>

<svg xmlns="http://www.w3.org/2000/svg" width="24" height="24" fill="none"><path fill="currentColor" fill-rule="evenodd" d="M9.4 3.9c-1.479 0-2.7 1.22-2.7 2.754s1.221 2.754 2.7 2.754 2.7-1.22 2.7-2.754S10.879 3.9 9.4 3.9M4.9 6.654C4.9 4.152 6.902 2.1 9.4 2.1s4.5 2.052 4.5 4.554-2.002 4.554-4.5 4.554-4.5-2.051-4.5-4.554m9.366 8.793a3.2 3.2 0 0 0-.366 1.493c0 1.758 1.4 3.16 3.1 3.16a3.04 3.04 0 0 0 1.476-.38zm-.735-2.01A4.98 4.98 0 0 0 12.1 16.94c0 2.726 2.181 4.96 4.9 4.96a4.86 4.86 0 0 0 3.47-1.458 4.98 4.98 0 0 0 1.43-3.502c0-2.727-2.181-4.96-4.9-4.96a4.85 4.85 0 0 0-3.469 1.457m1.994.723 4.208 4.272c.234-.444.367-.951.367-1.492 0-1.758-1.4-3.16-3.1-3.16-.532 0-1.035.137-1.475.38m-11.99-.313A3.94 3.94 0 0 1 6.2 12.792h4.378a.9.9 0 0 1 0 1.8H6.2c-.418 0-.982.145-1.435.569-.432.405-.865 1.161-.865 2.59a.9.9 0 0 1-1.8 0c0-1.818.567-3.091 1.435-3.904" clip-rule="evenodd"/></svg>
